;Generated with Cura_SteamEngine 15.05
; Default start code
G28 ; Home extruder
M851 Z-1.5 ; offset tete
G1 Z15 F100
M107 ; Turn off fan
G90 ; Absolute positioning
M82 ; Extruder in absolute mode
M190 S50
; Activate all used extruder
M104 T0 S190
G92 E0 ; Reset extruder position
; Wait for all used extruders to reach temperature
M109 T0 S190
;Layer count: 15
;LAYER:0
M107
G0 F9000 X37.824 Y46.354 Z0.200
;TYPE:SKIRT
G1 F1800 X55.289 Y67.169 E0.63261
G1 X57.492 Y67.169 E0.68390
G1 X74.957 Y46.354 E1.31651
G1 X37.824 Y46.354 E2.18104
G0 F9000 X36.966 Y45.954
G1 F1800 X55.103 Y67.569 E2.83798
G1 X57.678 Y67.569 E2.89793
G1 X75.814 Y45.954 E3.55485
G1 X36.966 Y45.954 E4.45931
G0 F9000 X36.108 Y45.554
G1 F1800 X54.916 Y67.969 E5.14056
G1 X57.864 Y67.969 E5.20919
G1 X57.955 Y67.861 E5.21248
G1 X76.673 Y45.554 E5.89045
G1 X36.108 Y45.554 E6.83489
G0 F9000 X35.250 Y45.154
G1 F1800 X54.729 Y68.369 E7.54044
G1 X58.051 Y68.369 E7.61779
G1 X77.530 Y45.154 E8.32334
G1 X35.250 Y45.154 E9.30771
G0 F9000 X34.392 Y44.754
G1 F1800 X54.542 Y68.769 E10.03757
G1 X58.238 Y68.769 E10.12362
G1 X78.388 Y44.754 E10.85349
G1 X34.392 Y44.754 E11.87780
G0 F9000 X33.535 Y44.354
G1 F1800 X54.356 Y69.169 E12.63198
G1 X58.424 Y69.169 E12.72669
G1 X79.245 Y44.354 E13.48086
G1 X33.535 Y44.354 E14.54509
G0 F9000 X32.676 Y43.954
G1 F1800 X54.169 Y69.569 E15.32359
G1 X58.611 Y69.569 E15.42701
G1 X80.104 Y43.954 E16.20551
G1 X32.676 Y43.954 E17.30973
G0 F9000 X31.819 Y43.554
G1 F1800 X53.983 Y69.969 E18.11254
G1 X58.797 Y69.969 E18.22462
G1 X80.961 Y43.554 E19.02743
G1 X31.819 Y43.554 E20.17155
G0 F9000 X25.445 Y49.928
G1 F1800 X25.445 Y99.070 E21.31568
G1 X51.859 Y76.906 E22.11847
G1 X51.859 Y72.092 E22.23055
G1 X25.445 Y49.928 E23.03335
G0 F9000 X25.845 Y50.785
G1 F1800 X25.845 Y98.213 E24.13757
G1 X51.459 Y76.720 E24.91605
G1 X51.459 Y72.278 E25.01947
G1 X25.845 Y50.785 E25.79795
G0 F9000 X26.245 Y51.644
G1 F1800 X26.245 Y97.354 E26.86217
G1 X51.059 Y76.533 E27.61633
G1 X51.059 Y72.465 E27.71104
G1 X26.245 Y51.644 E28.46520
G0 F9000 X26.645 Y52.501
G1 F1800 X26.645 Y96.497 E29.48952
G1 X50.659 Y76.347 E30.21936
G1 X50.659 Y72.651 E30.30541
G1 X26.645 Y52.501 E31.03526
G0 F9000 X27.045 Y53.359
G1 F1800 X27.045 Y95.639 E32.01963
G1 X50.259 Y76.160 E32.72516
G1 X50.259 Y72.838 E32.80251
G1 X27.045 Y53.359 E33.50804
G0 F9000 X27.445 Y54.216
G1 F1800 X27.445 Y94.780 E34.45246
G1 X49.859 Y75.973 E35.13367
G1 X49.859 Y73.025 E35.20230
G1 X49.751 Y72.934 E35.20559
G1 X27.445 Y54.216 E35.88355
G0 F9000 X27.845 Y55.075
G1 F1800 X27.845 Y93.923 E36.78801
G1 X49.459 Y75.787 E37.44491
G1 X49.459 Y73.211 E37.50488
G1 X27.845 Y55.075 E38.16179
G0 F9000 X28.245 Y55.932
G1 F1800 X28.245 Y93.065 E39.02632
G1 X49.059 Y75.600 E39.65891
G1 X49.059 Y73.397 E39.71020
G1 X28.245 Y55.932 E40.34279
G0 F9000 X14.190 Y35.799
G1 F1800 X105.590 Y35.799 E42.47078
G1 X105.592 Y41.799 E42.61047
G1 X105.594 Y42.015 E42.61550
G1 X105.643 Y42.819 E42.63425
G1 X105.791 Y43.629 E42.65342
G1 X106.026 Y44.382 E42.67179
G1 X106.374 Y45.163 E42.69170
G1 X106.794 Y45.857 E42.71058
G1 X107.304 Y46.509 E42.72985
G1 X107.865 Y47.069 E42.74831
G1 X108.533 Y47.597 E42.76813
G1 X109.233 Y48.020 E42.78717
G1 X109.980 Y48.356 E42.80624
G1 X110.735 Y48.590 E42.82465
G1 X111.574 Y48.749 E42.84453
G1 X112.393 Y48.798 E42.86363
G1 X113.186 Y48.751 E42.88213
G1 X114.022 Y48.600 E42.90191
G1 X114.776 Y48.366 E42.92029
G1 X115.557 Y48.018 E42.94019
G1 X116.226 Y47.613 E42.95840
G1 X116.903 Y47.087 E42.97836
G1 X117.482 Y46.509 E42.99741
G1 X117.992 Y45.857 E43.01668
G1 X118.414 Y45.159 E43.03567
G1 X118.749 Y44.414 E43.05469
G1 X118.995 Y43.626 E43.07391
G1 X119.143 Y42.819 E43.09301
G1 X119.205 Y41.799 E43.11680
G1 X164.403 Y41.799 E44.16911
G1 X165.168 Y41.899 E44.18707
G1 X165.220 Y41.907 E44.18829
G1 X165.991 Y42.226 E44.20772
G1 X166.654 Y42.734 E44.22717
G1 X167.163 Y43.398 E44.24664
G1 X167.482 Y44.170 E44.26609
G1 X167.586 Y44.959 E44.28462
G1 X167.590 Y45.749 E44.30301
G1 X167.590 Y67.651 E44.81294
G1 X166.723 Y68.214 E44.83701
G1 X166.019 Y68.797 E44.85829
G1 X165.408 Y69.437 E44.87889
G1 X164.843 Y70.184 E44.90069
G1 X164.379 Y70.981 E44.92217
G1 X164.020 Y71.807 E44.94313
G1 X163.763 Y72.662 E44.96392
G1 X163.594 Y73.587 E44.98581
G1 X163.542 Y74.499 E45.00708
G1 X163.593 Y75.382 E45.02767
G1 X163.753 Y76.304 E45.04946
G1 X164.010 Y77.157 E45.07020
G1 X164.382 Y78.021 E45.09210
G1 X164.843 Y78.813 E45.11344
G1 X165.388 Y79.539 E45.13457
G1 X166.002 Y80.183 E45.15529
G1 X166.718 Y80.781 E45.17701
G1 X167.590 Y81.346 E45.20120
G1 X167.590 Y106.013 E45.77550
G1 X167.546 Y106.320 E45.78272
G1 X167.425 Y106.607 E45.78997
G1 X167.233 Y106.855 E45.79727
G1 X166.982 Y107.043 E45.80458
G1 X166.700 Y107.160 E45.81168
G1 X166.403 Y107.199 E45.81866
G1 X119.205 Y107.199 E46.91753
G1 X119.143 Y106.178 E46.94134
G1 X118.995 Y105.368 E46.96051
G1 X118.761 Y104.619 E46.97878
G1 X118.410 Y103.832 E46.99884
G1 X117.989 Y103.134 E47.01782
G1 X117.505 Y102.517 E47.03608
G1 X116.902 Y101.910 E47.05600
G1 X116.251 Y101.400 E47.07525
G1 X115.553 Y100.978 E47.09424
G1 X114.808 Y100.643 E47.11326
G1 X114.020 Y100.397 E47.13248
G1 X113.214 Y100.249 E47.15156
G1 X112.409 Y100.201 E47.17034
G1 X112.391 Y100.200 E47.17076
G1 X111.572 Y100.249 E47.18986
G1 X110.791 Y100.391 E47.20834
G1 X109.980 Y100.642 E47.22810
G1 X109.233 Y100.978 E47.24717
G1 X108.528 Y101.403 E47.26634
G1 X107.911 Y101.887 E47.28460
G1 X107.299 Y102.494 E47.30467
G1 X106.797 Y103.134 E47.32360
G1 X106.389 Y103.811 E47.34201
G1 X106.036 Y104.586 E47.36183
G1 X105.791 Y105.371 E47.38098
G1 X105.643 Y106.178 E47.40008
G1 X105.590 Y107.012 E47.41954
G1 X105.590 Y113.199 E47.56358
G1 X14.190 Y113.199 E49.69157
G1 X14.190 Y35.799 E51.49360
G0 F9000 X13.790 Y35.399
G1 F1800 X105.990 Y35.399 E53.64021
G1 X105.992 Y41.799 E53.78922
G1 X105.994 Y42.004 E53.79399
G1 X106.041 Y42.772 E53.81190
G1 X106.179 Y43.529 E53.82982
G1 X106.402 Y44.243 E53.84723
G1 X106.729 Y44.977 E53.86594
G1 X107.121 Y45.626 E53.88359
G1 X107.604 Y46.243 E53.90184
G1 X108.131 Y46.769 E53.91917
G1 X108.758 Y47.265 E53.93779
G1 X109.423 Y47.667 E53.95588
G1 X110.122 Y47.981 E53.97372
G1 X110.833 Y48.202 E53.99105
G1 X111.625 Y48.351 E54.00982
G1 X112.393 Y48.398 E54.02773
G1 X113.142 Y48.353 E54.04520
G1 X113.921 Y48.212 E54.06363
G1 X114.637 Y47.990 E54.08108
G1 X115.371 Y47.663 E54.09979
G1 X115.999 Y47.283 E54.11688
G1 X116.636 Y46.788 E54.13566
G1 X117.182 Y46.243 E54.15363
G1 X117.665 Y45.626 E54.17187
G1 X118.058 Y44.976 E54.18955
G1 X118.374 Y44.272 E54.20752
G1 X118.607 Y43.526 E54.22571
G1 X118.745 Y42.772 E54.24356
G1 X118.828 Y41.399 E54.27559
G1 X164.429 Y41.399 E55.33727
G1 X165.224 Y41.503 E55.35594
G1 X165.329 Y41.519 E55.35841
G1 X166.192 Y41.877 E55.38017
G1 X166.939 Y42.449 E55.40207
G1 X167.512 Y43.197 E55.42401
G1 X167.872 Y44.065 E55.44589
G1 X167.986 Y44.932 E55.46624
G1 X167.990 Y45.748 E55.48524
G1 X167.990 Y67.868 E56.00024
G1 X166.961 Y68.535 E56.02879
G1 X166.291 Y69.091 E56.04906
G1 X165.714 Y69.696 E56.06853
G1 X165.178 Y70.403 E56.08918
G1 X164.738 Y71.161 E56.10959
G1 X164.395 Y71.949 E56.12960
G1 X164.151 Y72.760 E56.14932
G1 X163.992 Y73.632 E56.16995
G1 X163.942 Y74.499 E56.19017
G1 X163.990 Y75.334 E56.20965
G1 X164.143 Y76.213 E56.23042
G1 X164.387 Y77.022 E56.25009
G1 X164.737 Y77.836 E56.27072
G1 X165.177 Y78.592 E56.29109
G1 X165.696 Y79.283 E56.31121
G1 X166.271 Y79.886 E56.33061
G1 X166.958 Y80.460 E56.35145
G1 X167.990 Y81.129 E56.38008
G1 X167.990 Y106.041 E56.96009
G1 X167.935 Y106.428 E56.96919
G1 X167.773 Y106.811 E56.97887
G1 X167.516 Y107.142 E56.98862
G1 X167.182 Y107.393 E56.99835
G1 X166.805 Y107.550 E57.00786
G1 X166.429 Y107.599 E57.01669
G1 X118.828 Y107.599 E58.12494
G1 X118.745 Y106.225 E58.15699
G1 X118.607 Y105.468 E58.17490
G1 X118.385 Y104.757 E58.19224
G1 X118.058 Y104.024 E58.21093
G1 X117.657 Y103.360 E58.22899
G1 X117.204 Y102.782 E58.24609
G1 X116.636 Y102.210 E58.26486
G1 X116.020 Y101.727 E58.28308
G1 X115.370 Y101.334 E58.30077
G1 X114.666 Y101.018 E58.31873
G1 X113.920 Y100.785 E58.33693
G1 X113.167 Y100.647 E58.35475
G1 X112.389 Y100.600 E58.37290
G1 X111.617 Y100.647 E58.39090
G1 X110.889 Y100.779 E58.40813
G1 X110.124 Y101.016 E58.42678
G1 X109.423 Y101.331 E58.44467
G1 X108.754 Y101.735 E58.46286
G1 X108.176 Y102.188 E58.47996
G1 X107.599 Y102.760 E58.49888
G1 X107.129 Y103.360 E58.51662
G1 X106.741 Y104.003 E58.53411
G1 X106.410 Y104.729 E58.55268
G1 X106.179 Y105.471 E58.57078
G1 X106.041 Y106.225 E58.58862
G1 X105.990 Y107.021 E58.60719
G1 X105.990 Y113.599 E58.76034
G1 X13.790 Y113.599 E60.90695
G1 X13.790 Y35.399 E62.72761
G0 F9000 X13.390 Y34.999
G1 F1800 X106.390 Y34.999 E64.89285
G1 X106.392 Y41.799 E65.05117
G1 X106.394 Y41.995 E65.05573
G1 X106.438 Y42.717 E65.07257
G1 X106.569 Y43.436 E65.08959
G1 X106.778 Y44.104 E65.10588
G1 X107.081 Y44.785 E65.12323
G1 X107.456 Y45.405 E65.14010
G1 X107.905 Y45.979 E65.15707
G1 X108.399 Y46.472 E65.17332
G1 X108.984 Y46.935 E65.19069
G1 X109.606 Y47.310 E65.20760
G1 X110.266 Y47.607 E65.22445
G1 X110.927 Y47.813 E65.24057
G1 X111.677 Y47.954 E65.25834
G1 X112.393 Y47.997 E65.27504
G1 X113.089 Y47.956 E65.29127
G1 X113.830 Y47.822 E65.30880
G1 X114.497 Y47.615 E65.32506
G1 X115.179 Y47.311 E65.34245
G1 X115.773 Y46.952 E65.35860
G1 X116.372 Y46.486 E65.37627
G1 X116.885 Y45.974 E65.39315
G1 X117.330 Y45.405 E65.40997
G1 X117.704 Y44.786 E65.42680
G1 X118.000 Y44.129 E65.44358
G1 X118.217 Y43.433 E65.46055
G1 X118.348 Y42.717 E65.47750
G1 X118.452 Y40.999 E65.51757
G1 X164.455 Y40.999 E66.58862
G1 X165.281 Y41.107 E66.60801
G1 X165.437 Y41.131 E66.61169
G1 X166.394 Y41.527 E66.63580
G1 X167.224 Y42.164 E66.66016
G1 X167.862 Y42.995 E66.68455
G1 X168.261 Y43.961 E66.70889
G1 X168.386 Y44.905 E66.73106
G1 X168.390 Y45.747 E66.75066
G1 X168.390 Y68.085 E67.27074
G1 X167.198 Y68.859 E67.30383
G1 X166.563 Y69.386 E67.32304
G1 X166.024 Y69.950 E67.34120
G1 X165.507 Y70.633 E67.36115
G1 X165.098 Y71.336 E67.38008
G1 X164.771 Y72.088 E67.39917
G1 X164.542 Y72.848 E67.41765
G1 X164.389 Y73.686 E67.43749
G1 X164.342 Y74.499 E67.45645
G1 X164.388 Y75.286 E67.47480
G1 X164.533 Y76.120 E67.49451
G1 X164.763 Y76.885 E67.51311
G1 X165.097 Y77.661 E67.53278
G1 X165.508 Y78.366 E67.55178
G1 X166.003 Y79.026 E67.57098
G1 X166.544 Y79.593 E67.58923
G1 X167.196 Y80.138 E67.60901
G1 X168.390 Y80.911 E67.64213
G1 X168.390 Y106.070 E68.22788
G1 X168.324 Y106.536 E68.23884
G1 X168.121 Y107.015 E68.25095
G1 X167.799 Y107.430 E68.26318
G1 X167.382 Y107.743 E68.27532
G1 X166.909 Y107.939 E68.28724
G1 X166.456 Y107.999 E68.29788
G1 X118.452 Y107.999 E69.41552
G1 X118.348 Y106.280 E69.45561
G1 X118.217 Y105.561 E69.47263
G1 X118.009 Y104.896 E69.48885
G1 X117.703 Y104.210 E69.50634
G1 X117.329 Y103.591 E69.52318
G1 X116.899 Y103.042 E69.53941
G1 X116.371 Y102.510 E69.55686
G1 X115.799 Y102.062 E69.57378
G1 X115.180 Y101.688 E69.59062
G1 X114.523 Y101.392 E69.60739
G1 X113.827 Y101.175 E69.62437
G1 X113.112 Y101.044 E69.64129
G1 X112.389 Y101.001 E69.65815
G1 X111.672 Y101.044 E69.67488
G1 X110.979 Y101.170 E69.69127
G1 X110.268 Y101.390 E69.70860
G1 X109.606 Y101.688 E69.72551
G1 X108.985 Y102.063 E69.74240
G1 X108.436 Y102.493 E69.75863
G1 X107.902 Y103.022 E69.77613
G1 X107.457 Y103.591 E69.79295
G1 X107.095 Y104.190 E69.80924
G1 X106.786 Y104.869 E69.82661
G1 X106.569 Y105.564 E69.84356
G1 X106.438 Y106.280 E69.86051
G1 X106.390 Y107.032 E69.87805
G1 X106.390 Y113.999 E70.04026
G1 X13.390 Y113.999 E72.20550
G1 X13.390 Y34.999 E74.04478
G0 F9000 X12.990 Y34.599
G1 F1800 X106.790 Y34.599 E76.22864
G1 X106.792 Y41.799 E76.39627
G1 X106.794 Y41.986 E76.40063
G1 X106.836 Y42.671 E76.41660
G1 X106.957 Y43.336 E76.43234
G1 X107.151 Y43.958 E76.44751
G1 X107.440 Y44.606 E76.46403
G1 X107.783 Y45.174 E76.47948
G1 X108.205 Y45.713 E76.49542
G1 X108.662 Y46.169 E76.51045
G1 X109.216 Y46.608 E76.52690
G1 X109.789 Y46.953 E76.54248
G1 X110.412 Y47.234 E76.55839
G1 X111.026 Y47.424 E76.57335
G1 X111.728 Y47.557 E76.58999
G1 X112.393 Y47.597 E76.60550
G1 X113.036 Y47.558 E76.62050
G1 X113.737 Y47.432 E76.63708
G1 X114.351 Y47.241 E76.65205
G1 X115.000 Y46.952 E76.66859
G1 X115.551 Y46.619 E76.68358
G1 X116.105 Y46.188 E76.69992
G1 X116.581 Y45.713 E76.71558
G1 X117.003 Y45.174 E76.73151
G1 X117.346 Y44.605 E76.74698
G1 X117.629 Y43.976 E76.76304
G1 X117.828 Y43.341 E76.77853
G1 X117.950 Y42.671 E76.79439
G1 X118.075 Y40.599 E76.84272
G1 X164.481 Y40.599 E77.92315
G1 X165.337 Y40.711 E77.94325
G1 X165.546 Y40.743 E77.94817
G1 X166.596 Y41.178 E77.97463
G1 X167.509 Y41.878 E78.00141
G1 X168.211 Y42.793 E78.02827
G1 X168.651 Y43.857 E78.05507
G1 X168.786 Y44.878 E78.07905
G1 X168.790 Y45.746 E78.09926
G1 X168.790 Y68.302 E78.62441
G1 X167.441 Y69.178 E78.66186
G1 X166.835 Y69.680 E78.68018
G1 X166.326 Y70.213 E78.69734
G1 X165.842 Y70.853 E78.71602
G1 X165.456 Y71.516 E78.73388
G1 X165.147 Y72.227 E78.75193
G1 X164.929 Y72.949 E78.76949
G1 X164.788 Y73.723 E78.78781
G1 X164.744 Y74.499 E78.80590
G1 X164.787 Y75.246 E78.82332
G1 X164.922 Y76.026 E78.84175
G1 X165.139 Y76.745 E78.85924
G1 X165.457 Y77.483 E78.87795
G1 X165.842 Y78.145 E78.89578
G1 X166.307 Y78.765 E78.91382
G1 X166.818 Y79.300 E78.93105
G1 X167.437 Y79.818 E78.94984
G1 X168.790 Y80.694 E78.98737
G1 X168.790 Y106.098 E79.57882
G1 X168.712 Y106.643 E79.59164
G1 X168.469 Y107.219 E79.60620
G1 X168.082 Y107.718 E79.62090
G1 X167.581 Y108.094 E79.63548
G1 X167.014 Y108.329 E79.64977
G1 X166.482 Y108.399 E79.66227
G1 X118.075 Y108.399 E80.78928
G1 X117.950 Y106.326 E80.83763
G1 X117.829 Y105.661 E80.85337
G1 X117.634 Y105.035 E80.86864
G1 X117.349 Y104.398 E80.88488
G1 X116.998 Y103.816 E80.90071
G1 X116.602 Y103.310 E80.91567
G1 X116.105 Y102.810 E80.93208
G1 X115.568 Y102.389 E80.94797
G1 X114.999 Y102.046 E80.96343
G1 X114.370 Y101.763 E80.97949
G1 X113.735 Y101.564 E80.99499
G1 X113.066 Y101.442 E81.01082
G1 X112.388 Y101.401 E81.02663
G1 X111.717 Y101.442 E81.04228
G1 X111.085 Y101.557 E81.05724
G1 X110.408 Y101.766 E81.07374
G1 X109.789 Y102.045 E81.08954
G1 X109.210 Y102.394 E81.10528
G1 X108.704 Y102.790 E81.12024
G1 X108.199 Y103.292 E81.13682
G1 X107.791 Y103.812 E81.15221
G1 X107.447 Y104.381 E81.16769
G1 X107.157 Y105.018 E81.18399
G1 X106.958 Y105.656 E81.19955
G1 X106.836 Y106.326 E81.21540
G1 X106.790 Y107.041 E81.23208
G1 X106.790 Y114.399 E81.40339
G1 X12.990 Y114.399 E83.58725
G1 X12.990 Y34.599 E85.44516
G0 F9000 X12.590 Y34.199
G1 F1800 X107.189 Y34.199 E87.64763
G1 X107.192 Y41.783 E87.82420
G1 X107.194 Y41.958 E87.82827
G1 X107.234 Y42.626 E87.84385
G1 X107.347 Y43.242 E87.85843
G1 X107.527 Y43.820 E87.87253
G1 X107.795 Y44.420 E87.88783
G1 X108.113 Y44.947 E87.90216
G1 X108.502 Y45.444 E87.91685
G1 X108.929 Y45.870 E87.93090
G1 X109.447 Y46.280 E87.94628
G1 X109.979 Y46.601 E87.96074
G1 X110.549 Y46.858 E87.97530
G1 X111.122 Y47.035 E87.98926
G1 X111.771 Y47.158 E88.00464
G1 X112.394 Y47.195 E88.01917
G1 X113.000 Y47.159 E88.03331
G1 X113.638 Y47.044 E88.04840
G1 X114.210 Y46.866 E88.06235
G1 X114.814 Y46.597 E88.07774
G1 X115.319 Y46.292 E88.09148
G1 X115.841 Y45.886 E88.10687
G1 X116.284 Y45.444 E88.12144
G1 X116.673 Y44.947 E88.13614
G1 X116.994 Y44.416 E88.15058
G1 X117.252 Y43.843 E88.16521
G1 X117.438 Y43.244 E88.17982
G1 X117.552 Y42.626 E88.19445
G1 X117.699 Y40.199 E88.25106
G1 X164.507 Y40.199 E89.34084
G1 X165.393 Y40.315 E89.36165
G1 X165.654 Y40.355 E89.36780
G1 X166.797 Y40.829 E89.39660
G1 X167.795 Y41.593 E89.42587
G1 X168.561 Y42.592 E89.45518
G1 X169.041 Y43.752 E89.48440
G1 X169.185 Y44.850 E89.51019
G1 X169.190 Y45.745 E89.53102
G1 X169.190 Y68.520 E90.06127
G1 X167.668 Y69.507 E90.10351
G1 X167.116 Y69.965 E90.12021
G1 X166.632 Y70.473 E90.13654
G1 X166.174 Y71.077 E90.15419
G1 X165.811 Y71.702 E90.17102
G1 X165.524 Y72.361 E90.18775
G1 X165.320 Y73.037 E90.20419
G1 X165.186 Y73.778 E90.22173
G1 X165.144 Y74.499 E90.23854
G1 X165.184 Y75.197 E90.25482
G1 X165.313 Y75.935 E90.27226
G1 X165.516 Y76.610 E90.28867
G1 X165.811 Y77.295 E90.30604
G1 X166.180 Y77.928 E90.32309
